Newaita-dark/apps/16/mintinstall.svg

<svg height="16" viewBox="0 0 16 16" width="16" xmlns="http://www.w3.org/2000/svg" xmlns:xlink="http://www.w3.org/1999/xlink"><linearGradient id="a" gradientUnits="userSpaceOnUse" x1="7.93826" x2="7.93826" y1="14.2650375" y2="14.92655950002"><stop offset="0" stop-opacity=".27451"/><stop offset="1" stop-opacity="0"/></linearGradient><linearGradient id="b"><stop offset="0" stop-opacity=".313726"/><stop offset=".222222" stop-opacity=".27451"/><stop offset="1" stop-opacity="0"/></linearGradient><radialGradient id="c" cx="450.908936" cy="189.579361" gradientTransform="matrix(.00000009 -.0390662 -.0703192 -.00000005 27.057606 32.045736)" gradientUnits="userSpaceOnUse" r="21.166656" xlink:href="#b"/><radialGradient id="d" cx="450.908936" cy="189.579361" gradientTransform="matrix(-.00000009 .0390662 .0703192 .00000005 -11.181089 -3.51567)" gradientUnits="userSpaceOnUse" r="21.166656" xlink:href="#b"/><radialGradient id="e" cx="450.908936" cy="189.579361" gradientTransform="matrix(-.00000009 -.0390662 .0703192 -.00000005 -11.181089 32.045736)" gradientUnits="userSpaceOnUse" r="21.166656" xlink:href="#b"/><radialGradient id="f" cx="450.908936" cy="189.579361" gradientTransform="matrix(.00000009 .0390662 -.0703192 .00000005 27.057605 -3.51567)" gradientUnits="userSpaceOnUse" r="21.166656" xlink:href="#b"/><linearGradient id="g"><stop offset="0" stop-color="#e0e0e0"/><stop offset="1" stop-color="#bdbdbd"/></linearGradient><linearGradient id="h" gradientUnits="userSpaceOnUse" x1="254" x2="254" xlink:href="#g" y1="-192.479156" y2="-86.645832"/><linearGradient id="i" gradientUnits="userSpaceOnUse" x1="6.94597925" x2="6.94597925" y1="3.01916699999" y2="13.2727555"><stop offset="0" stop-color="#aed581"/><stop offset="1" stop-color="#9ccc65"/></linearGradient><linearGradient id="j" gradientUnits="userSpaceOnUse" x1="7.2767376" x2="7.2767376" y1="10.95742792992" y2="7.64981992992"><stop offset="0" stop-opacity=".078431"/><stop offset="1" stop-opacity="0"/></linearGradient><linearGradient id="k" gradientUnits="userSpaceOnUse" x1="254" x2="254" xlink:href="#g" y1="146.1875" y2="-44.3125"/><path d="m1.984375 14.265625h11.90625v.660156h-11.90625zm0 0" fill="url(#a)"/><path d="m13.890625 14.265625h1.324219v-.664063h-1.324219zm0 0" fill="url(#c)"/><path d="m1.984375 14.265625h-1.324219v.660156h1.324219zm0 0" fill="url(#d)"/><path d="m1.984375 14.265625h-1.324219v-.664063h1.324219zm0 0" fill="url(#e)"/><path d="m13.890625 14.265625h1.324219v.660156h-1.324219zm0 0" fill="url(#f)"/><path d="m252.850854-193.752029c-7.874248.124988-15.748496 1.749833-22.872816 4.874534-19.248162 8.124225-35.371622 24.247685-46.370572 43.120883-10.998949 18.873197-16.998376 40.496132-13.498711 60.744199.499953 3.624654 2.874726 6.624367 6.249404 7.874248 3.374677 1.24988 7.249307.62494 9.999045-1.624845 2.749737-2.374773 4.124606-5.999427 3.374678-9.499093-2.249786-13.873675 1.999809-31.746968 11.123937-47.370476 9.124129-15.748496 22.872816-28.997231 36.871479-34.87167 13.873675-5.874439 27.247398-5.499475 41.371049 6.124415 14.123652 11.62389 28.997231 36.246539 39.246253 79.992361.749928 3.499666 3.374677 6.374391 6.874343 7.374296 3.374678 1.124892 7.12432.249976 9.749069-2.249785 2.62475-2.499762 3.749642-6.124415 2.874726-9.624081-10.873962-46.245584-26.622458-75.117827-45.995608-90.991311-12.123842-9.874057-25.747541-14.123651-38.996276-13.873675zm0 0" fill="url(#h)" stroke="#212121" stroke-linecap="round" stroke-linejoin="round" stroke-width="3" transform="matrix(.031253 0 0 .031253 0 6.719392)"/><path d="m1.652344 3.019531h12.570312c.367188 0 .660156.296875.660156.660157v9.921874c0 .367188-.292968.664063-.660156.664063h-12.570312c-.363282 0-.660156-.296875-.660156-.664063v-9.921874c0-.363282.296874-.660157.660156-.660157zm0 0" fill="url(#i)"/><path d="m12.570312 7.320312c-2.566406 0-4.632812 2.0625-4.632812 4.628907 0 .84375.226562 1.636719.617188 2.316406h5.667968c.367188 0 .660156-.296875.660156-.664063v-5.667968c-.679687-.390625-1.46875-.613282-2.3125-.613282zm0 2.644532c1.097657 0 1.984376.886718 1.984376 1.984375 0 1.101562-.886719 1.984375-1.984376 1.984375-1.101562 0-1.984374-.882813-1.984374-1.984375 0-1.097657.882812-1.984375 1.984374-1.984375zm0 .332031c-.917968 0-1.65625.738281-1.65625 1.652344 0 .917969.738282 1.652343 1.65625 1.652343.914063 0 1.652344-.734374 1.652344-1.652343 0-.914063-.738281-1.652344-1.652344-1.652344zm0 .660156c.546876 0 .992188.441407.992188.992188s-.445312.992187-.992188.992187c-.550781 0-.992187-.441406-.992187-.992187s.441406-.992188.992187-.992188zm0 0" fill="#fff" fill-opacity=".588235"/><path d="m1.652344 14.265625c-.363282 0-.660156-.296875-.660156-.664063v-.246093c0 .367187.296874.660156.660156.660156h12.570312c.367188 0 .660156-.292969.660156-.660156v.246093c0 .367188-.292968.664063-.660156.664063zm0 0" fill-opacity=".235294"/><path d="m.996094 3.472656c-.003906.027344-.003906.054688-.003906.085938v.039062c.003906-.011718.003906-.027344.003906-.039062.042968.324218.320312.578125.65625.578125h12.570312c.339844 0 .617188-.253907.65625-.578125 0 .011718.003906.027344.003906.039062 0-.011718 0-.027344 0-.039062 0-.03125 0-.058594-.003906-.085938-.039062.328125-.316406.582032-.65625.582032h-12.570312c-.335938 0-.613282-.253907-.65625-.582032zm0 0" fill="#fff" fill-opacity=".784314"/><path d="m1.652344 2.972656c-.328125 0-.605469.226563-.683594.53125-.003906.007813-.003906.015625 0 .023438.078125.304687.355469.53125.683594.53125h12.570312c.332032 0 .609375-.226563.6875-.53125 0-.007813 0-.015625 0-.023438-.078125-.304687-.355468-.53125-.6875-.53125zm0 .09375h12.570312c.285156 0 .519532.1875.59375.449219-.074218.257813-.308594.449219-.59375.449219h-12.570312c-.28125 0-.519532-.191406-.589844-.449219.070312-.261719.308594-.449219.589844-.449219zm0 0" fill="#212121"/><path d="m53.14996-343.44799c11.708882.029988 21.112989 7.069309 21.132994 15.928463.055001 8.739165-9.444086 15.863492-21.152968 15.833503-11.708882-.029988-21.232978-7.104305-21.132994-15.928463-.055001-8.739165 9.444086-15.863492 21.152968-15.833503zm0 0" fill-opacity=".313726" stroke="#212121" stroke-linecap="round" stroke-linejoin="round" stroke-width="3" transform="matrix(.00875081 .0300029 -.0300029 .00875081 0 6.719392)"/><path d="m-89.076096 144.185547c11.743879-.09 21.112989 7.06931 21.167991 15.808475.055001 8.739165-9.444087 15.863492-21.152968 15.833503-11.743879.090001-21.232978-7.104305-21.167991-15.808474-.055001-8.739165 9.444087-15.863492 21.152968-15.833504zm0 0" fill-opacity=".313726" stroke="#212121" stroke-linecap="round" stroke-linejoin="round" stroke-width="3" transform="matrix(-.00875081 .0300029 .0300029 .00875081 0 6.719392)"/><path d="m1.652344 3.019531c-.308594 0-.566406.210938-.640625.496094.074219.285156.332031.496094.640625.496094h12.570312c.308594 0 .566406-.210938.640625-.496094-.074219-.285156-.332031-.496094-.640625-.496094zm0 0" fill-opacity=".196078"/><path d="m.992188 7.648438v2.648437c0 .367187.296874.660156.660156.660156h12.570312c.367188 0 .660156-.292969.660156-.660156v-2.648437zm0 0" fill="url(#j)"/><g stroke="#212121" stroke-linecap="round" stroke-linejoin="round" stroke-width="3" transform="matrix(.031253 0 0 .031253 0 6.719392)"><path d="m328.218657-43.89134c-5.124511 0-9.499093 3.87463-9.999045 8.874152-10.124034 80.11735-25.247589 126.237945-39.871193 146.860976-7.249308 10.249021-13.498711 13.873675-18.74821 14.623603-5.12451.749929-10.998949-1.124892-17.873293-6.874343-13.748687-11.248926-28.747255-36.996467-38.7463-66.243674-9.874057-29.122219-15.248544-61.744104-13.123746-86.241764.374964-3.624654-1.249881-6.999332-4.124607-9.124129-2.999713-2.124797-6.874343-2.374773-10.124033-.874917-3.249689 1.499857-5.374487 4.749547-5.624463 8.249213-2.499761 28.747254 3.374678 63.118972 14.123652 94.490976 10.623985 31.372004 25.622553 59.494319 44.995703 75.242815 9.624081 7.874248 21.122983 12.873771 33.246825 11.123938 12.123842-1.624845 23.122792-9.749069 32.371908-22.872816 18.498234-26.247494 33.121837-74.24291 43.245871-155.860116.374964-2.874726-.374964-5.749451-2.249785-7.874248s-4.624559-3.499666-7.499284-3.499666zm0 0" fill="url(#k)"/><path d="m181.232693-91.636781c-3.87463 0-7.874248 1.749833-11.248926 4.999523h20.997995c-1.749833-2.124797-3.87463-3.749642-6.499379-4.49957-1.124893-.249976-2.124797-.374965-3.24969-.499953zm0 0" fill-opacity=".313726"/><path d="m326.593812-93.261625c-.999905 0-2.124797.124988-3.124702.499952-3.249689.874916-5.874439 3.124701-7.624272 6.124415h23.622744c-3.624653-4.249594-8.249212-6.749355-12.87377-6.624367zm0 0" fill-opacity=".313726"/></g><path d="m1.652344 2.972656c-.390625 0-.707032.316406-.707032.707032v9.925781c0 .390625.316407.707031.707032.707031h12.570312c.390625 0 .707032-.316406.707032-.707031v-9.925781c0-.390626-.316407-.707032-.707032-.707032zm0 .09375h12.570312c.339844 0 .613282.273438.613282.613282v9.925781c0 .339843-.273438.613281-.613282.613281h-12.570312c-.339844 0-.613282-.273438-.613282-.613281v-9.925781c0-.339844.273438-.613282.613282-.613282zm0 0" fill="#212121"/></svg>

<?xml version="1.0" encoding="UTF-8"?>
<svg xmlns="http://www.w3.org/2000/svg" xmlns:xlink="http://www.w3.org/1999/xlink" width="16px" height="16px" viewBox="0 0 16 16" version="1.1">
<defs>
<linearGradient id="linear0" gradientUnits="userSpaceOnUse" x1="254" y1="233.5" x2="254" y2="254.666672" gradientTransform="matrix(0.031253,0,0,0.031253,-0.00000190753,6.967462)">
<stop offset="0" style="stop-color:rgb(0%,0%,0%);stop-opacity:0.27451;"/>
<stop offset="1" style="stop-color:rgb(0%,0%,0%);stop-opacity:0;"/>
</linearGradient>
<radialGradient id="radial0" gradientUnits="userSpaceOnUse" cx="450.908936" cy="189.579361" fx="450.908936" fy="189.579361" r="21.166656" gradientTransform="matrix(0.0000000870852,-0.0390662,-0.0703192,-0.0000000507693,27.057606,32.045736)">
<stop offset="0" style="stop-color:rgb(0%,0%,0%);stop-opacity:0.313726;"/>
<stop offset="0.222222" style="stop-color:rgb(0%,0%,0%);stop-opacity:0.27451;"/>
<stop offset="1" style="stop-color:rgb(0%,0%,0%);stop-opacity:0;"/>
</radialGradient>
<radialGradient id="radial1" gradientUnits="userSpaceOnUse" cx="450.908936" cy="189.579361" fx="450.908936" fy="189.579361" r="21.166656" gradientTransform="matrix(-0.0000000870852,0.0390662,0.0703192,0.0000000507693,-11.181089,-3.51567)">
<stop offset="0" style="stop-color:rgb(0%,0%,0%);stop-opacity:0.313726;"/>
<stop offset="0.222222" style="stop-color:rgb(0%,0%,0%);stop-opacity:0.27451;"/>
<stop offset="1" style="stop-color:rgb(0%,0%,0%);stop-opacity:0;"/>
</radialGradient>
<radialGradient id="radial2" gradientUnits="userSpaceOnUse" cx="450.908936" cy="189.579361" fx="450.908936" fy="189.579361" r="21.166656" gradientTransform="matrix(-0.0000000870852,-0.0390662,0.0703192,-0.0000000507693,-11.181089,32.045736)">
<stop offset="0" style="stop-color:rgb(0%,0%,0%);stop-opacity:0.313726;"/>
<stop offset="0.222222" style="stop-color:rgb(0%,0%,0%);stop-opacity:0.27451;"/>
<stop offset="1" style="stop-color:rgb(0%,0%,0%);stop-opacity:0;"/>
</radialGradient>
<radialGradient id="radial3" gradientUnits="userSpaceOnUse" cx="450.908936" cy="189.579361" fx="450.908936" fy="189.579361" r="21.166656" gradientTransform="matrix(0.0000000870852,0.0390662,-0.0703192,0.0000000507693,27.057605,-3.51567)">
<stop offset="0" style="stop-color:rgb(0%,0%,0%);stop-opacity:0.313726;"/>
<stop offset="0.222222" style="stop-color:rgb(0%,0%,0%);stop-opacity:0.27451;"/>
<stop offset="1" style="stop-color:rgb(0%,0%,0%);stop-opacity:0;"/>
</radialGradient>
<linearGradient id="linear1" gradientUnits="userSpaceOnUse" x1="254" y1="-168.666656" x2="254" y2="-62.833332" gradientTransform="matrix(1,0,0,1,0,-23.8125)">
<stop offset="0" style="stop-color:rgb(87.843138%,87.843138%,87.843138%);stop-opacity:1;"/>
<stop offset="1" style="stop-color:rgb(74.117649%,74.117649%,74.117649%);stop-opacity:1;"/>
</linearGradient>
<linearGradient id="linear2" gradientUnits="userSpaceOnUse" x1="222.25" y1="-94.583336" x2="222.25" y2="233.5" gradientTransform="matrix(0.031253,0,0,0.031253,0,5.97518)">
<stop offset="0" style="stop-color:rgb(68.235296%,83.529413%,50.588238%);stop-opacity:1;"/>
<stop offset="1" style="stop-color:rgb(61.176473%,80.000001%,39.607844%);stop-opacity:1;"/>
</linearGradient>
<linearGradient id="linear3" gradientUnits="userSpaceOnUse" x1="880" y1="1695.117188" x2="880" y2="1295.117188" gradientTransform="matrix(0.00826902,0,0,0.00826902,0,-3.05953)">
<stop offset="0" style="stop-color:rgb(0%,0%,0%);stop-opacity:0.0784314;"/>
<stop offset="1" style="stop-color:rgb(0%,0%,0%);stop-opacity:0;"/>
</linearGradient>
<linearGradient id="linear4" gradientUnits="userSpaceOnUse" x1="254" y1="170" x2="254" y2="-20.5" gradientTransform="matrix(1,0,0,1,0,-23.8125)">
<stop offset="0" style="stop-color:rgb(87.843138%,87.843138%,87.843138%);stop-opacity:1;"/>
<stop offset="1" style="stop-color:rgb(74.117649%,74.117649%,74.117649%);stop-opacity:1;"/>
</linearGradient>
</defs>
<g id="surface1">
<path style=" stroke:none;fill-rule:nonzero;fill:url(#linear0);" d="M 1.984375 14.265625 L 13.890625 14.265625 L 13.890625 14.925781 L 1.984375 14.925781 Z M 1.984375 14.265625 "/>
<path style=" stroke:none;fill-rule:nonzero;fill:url(#radial0);" d="M 13.890625 14.265625 L 15.214844 14.265625 L 15.214844 13.601562 L 13.890625 13.601562 Z M 13.890625 14.265625 "/>
<path style=" stroke:none;fill-rule:nonzero;fill:url(#radial1);" d="M 1.984375 14.265625 L 0.660156 14.265625 L 0.660156 14.925781 L 1.984375 14.925781 Z M 1.984375 14.265625 "/>
<path style=" stroke:none;fill-rule:nonzero;fill:url(#radial2);" d="M 1.984375 14.265625 L 0.660156 14.265625 L 0.660156 13.601562 L 1.984375 13.601562 Z M 1.984375 14.265625 "/>
<path style=" stroke:none;fill-rule:nonzero;fill:url(#radial3);" d="M 13.890625 14.265625 L 15.214844 14.265625 L 15.214844 14.925781 L 13.890625 14.925781 Z M 13.890625 14.265625 "/>
<path style="fill-rule:nonzero;fill:url(#linear1);stroke-width:3;stroke-linecap:round;stroke-linejoin:round;stroke:rgb(12.941177%,12.941177%,12.941177%);stroke-opacity:1;stroke-miterlimit:4;" d="M 252.850854 -193.752029 C 244.976606 -193.627041 237.102358 -192.002196 229.978038 -188.877495 C 210.729876 -180.75327 194.606416 -164.62981 183.607466 -145.756612 C 172.608517 -126.883415 166.60909 -105.26048 170.108755 -85.012413 C 170.608708 -81.387759 172.983481 -78.388046 176.358159 -77.138165 C 179.732836 -75.888285 183.607466 -76.513225 186.357204 -78.76301 C 189.106941 -81.137783 190.48181 -84.762437 189.731882 -88.262103 C 187.482096 -102.135778 191.731691 -120.009071 200.855819 -135.632579 C 209.979948 -151.381075 223.728635 -164.62981 237.727298 -170.504249 C 251.600973 -176.378688 264.974696 -176.003724 279.098347 -164.379834 C 293.221999 -152.755944 308.095578 -128.133295 318.3446 -84.387473 C 319.094528 -80.887807 321.719277 -78.013082 325.218943 -77.013177 C 328.593621 -75.888285 332.343263 -76.763201 334.968012 -79.262962 C 337.592762 -81.762724 338.717654 -85.387377 337.842738 -88.887043 C 326.968776 -135.132627 311.22028 -164.00487 291.84713 -179.878354 C 279.723288 -189.752411 266.099589 -194.002005 252.850854 -193.752029 Z M 252.850854 -193.752029 " transform="matrix(0.031253,0,0,0.031253,0,6.719392)"/>
<path style=" stroke:none;fill-rule:nonzero;fill:url(#linear2);" d="M 1.652344 3.019531 L 14.222656 3.019531 C 14.589844 3.019531 14.882812 3.316406 14.882812 3.679688 L 14.882812 13.601562 C 14.882812 13.96875 14.589844 14.265625 14.222656 14.265625 L 1.652344 14.265625 C 1.289062 14.265625 0.992188 13.96875 0.992188 13.601562 L 0.992188 3.679688 C 0.992188 3.316406 1.289062 3.019531 1.652344 3.019531 Z M 1.652344 3.019531 "/>
<path style=" stroke:none;fill-rule:nonzero;fill:rgb(100%,100%,100%);fill-opacity:0.588235;" d="M 12.570312 7.320312 C 10.003906 7.320312 7.9375 9.382812 7.9375 11.949219 C 7.9375 12.792969 8.164062 13.585938 8.554688 14.265625 L 14.222656 14.265625 C 14.589844 14.265625 14.882812 13.96875 14.882812 13.601562 L 14.882812 7.933594 C 14.203125 7.542969 13.414062 7.320312 12.570312 7.320312 Z M 12.570312 9.964844 C 13.667969 9.964844 14.554688 10.851562 14.554688 11.949219 C 14.554688 13.050781 13.667969 13.933594 12.570312 13.933594 C 11.46875 13.933594 10.585938 13.050781 10.585938 11.949219 C 10.585938 10.851562 11.46875 9.964844 12.570312 9.964844 Z M 12.570312 10.296875 C 11.652344 10.296875 10.914062 11.035156 10.914062 11.949219 C 10.914062 12.867188 11.652344 13.601562 12.570312 13.601562 C 13.484375 13.601562 14.222656 12.867188 14.222656 11.949219 C 14.222656 11.035156 13.484375 10.296875 12.570312 10.296875 Z M 12.570312 10.957031 C 13.117188 10.957031 13.5625 11.398438 13.5625 11.949219 C 13.5625 12.5 13.117188 12.941406 12.570312 12.941406 C 12.019531 12.941406 11.578125 12.5 11.578125 11.949219 C 11.578125 11.398438 12.019531 10.957031 12.570312 10.957031 Z M 12.570312 10.957031 "/>
<path style=" stroke:none;fill-rule:nonzero;fill:rgb(0%,0%,0%);fill-opacity:0.235294;" d="M 1.652344 14.265625 C 1.289062 14.265625 0.992188 13.96875 0.992188 13.601562 L 0.992188 13.355469 C 0.992188 13.722656 1.289062 14.015625 1.652344 14.015625 L 14.222656 14.015625 C 14.589844 14.015625 14.882812 13.722656 14.882812 13.355469 L 14.882812 13.601562 C 14.882812 13.96875 14.589844 14.265625 14.222656 14.265625 Z M 1.652344 14.265625 "/>
<path style=" stroke:none;fill-rule:nonzero;fill:rgb(100%,100%,100%);fill-opacity:0.784314;" d="M 0.996094 3.472656 C 0.992188 3.5 0.992188 3.527344 0.992188 3.558594 C 0.992188 3.570312 0.992188 3.585938 0.992188 3.597656 C 0.996094 3.585938 0.996094 3.570312 0.996094 3.558594 C 1.039062 3.882812 1.316406 4.136719 1.652344 4.136719 L 14.222656 4.136719 C 14.5625 4.136719 14.839844 3.882812 14.878906 3.558594 C 14.878906 3.570312 14.882812 3.585938 14.882812 3.597656 C 14.882812 3.585938 14.882812 3.570312 14.882812 3.558594 C 14.882812 3.527344 14.882812 3.5 14.878906 3.472656 C 14.839844 3.800781 14.5625 4.054688 14.222656 4.054688 L 1.652344 4.054688 C 1.316406 4.054688 1.039062 3.800781 0.996094 3.472656 Z M 0.996094 3.472656 "/>
<path style=" stroke:none;fill-rule:nonzero;fill:rgb(12.941177%,12.941177%,12.941177%);fill-opacity:1;" d="M 1.652344 2.972656 C 1.324219 2.972656 1.046875 3.199219 0.96875 3.503906 C 0.964844 3.511719 0.964844 3.519531 0.96875 3.527344 C 1.046875 3.832031 1.324219 4.058594 1.652344 4.058594 L 14.222656 4.058594 C 14.554688 4.058594 14.832031 3.832031 14.910156 3.527344 C 14.910156 3.519531 14.910156 3.511719 14.910156 3.503906 C 14.832031 3.199219 14.554688 2.972656 14.222656 2.972656 Z M 1.652344 3.066406 L 14.222656 3.066406 C 14.507812 3.066406 14.742188 3.253906 14.816406 3.515625 C 14.742188 3.773438 14.507812 3.964844 14.222656 3.964844 L 1.652344 3.964844 C 1.371094 3.964844 1.132812 3.773438 1.0625 3.515625 C 1.132812 3.253906 1.371094 3.066406 1.652344 3.066406 Z M 1.652344 3.066406 "/>
<path style="fill-rule:nonzero;fill:rgb(0%,0%,0%);fill-opacity:0.313726;stroke-width:3;stroke-linecap:round;stroke-linejoin:round;stroke:rgb(12.941177%,12.941177%,12.941177%);stroke-opacity:1;stroke-miterlimit:4;" d="M 53.14996 -343.44799 C 64.858842 -343.418002 74.262949 -336.378681 74.282954 -327.519527 C 74.337955 -318.780362 64.838868 -311.656035 53.129986 -311.686024 C 41.421104 -311.716012 31.897008 -318.790329 31.996992 -327.614487 C 31.941991 -336.353652 41.441078 -343.477979 53.14996 -343.44799 Z M 53.14996 -343.44799 " transform="matrix(0.00875081,0.0300029,-0.0300029,0.00875081,0,6.719392)"/>
<path style="fill-rule:nonzero;fill:rgb(0%,0%,0%);fill-opacity:0.313726;stroke-width:3;stroke-linecap:round;stroke-linejoin:round;stroke:rgb(12.941177%,12.941177%,12.941177%);stroke-opacity:1;stroke-miterlimit:4;" d="M -89.076096 144.185547 C -77.332217 144.095547 -67.963107 151.254857 -67.908105 159.994022 C -67.853104 168.733187 -77.352192 175.857514 -89.061073 175.827525 C -100.804952 175.917526 -110.294051 168.72322 -110.229064 160.019051 C -110.284065 151.279886 -100.784977 144.155559 -89.076096 144.185547 Z M -89.076096 144.185547 " transform="matrix(-0.00875081,0.0300029,0.0300029,0.00875081,0,6.719392)"/>
<path style=" stroke:none;fill-rule:nonzero;fill:rgb(0%,0%,0%);fill-opacity:0.196078;" d="M 1.652344 3.019531 C 1.34375 3.019531 1.085938 3.230469 1.011719 3.515625 C 1.085938 3.800781 1.34375 4.011719 1.652344 4.011719 L 14.222656 4.011719 C 14.53125 4.011719 14.789062 3.800781 14.863281 3.515625 C 14.789062 3.230469 14.53125 3.019531 14.222656 3.019531 Z M 1.652344 3.019531 "/>
<path style=" stroke:none;fill-rule:nonzero;fill:url(#linear3);" d="M 0.992188 7.648438 L 0.992188 10.296875 C 0.992188 10.664062 1.289062 10.957031 1.652344 10.957031 L 14.222656 10.957031 C 14.589844 10.957031 14.882812 10.664062 14.882812 10.296875 L 14.882812 7.648438 Z M 0.992188 7.648438 "/>
<path style="fill-rule:nonzero;fill:url(#linear4);stroke-width:3;stroke-linecap:round;stroke-linejoin:round;stroke:rgb(12.941177%,12.941177%,12.941177%);stroke-opacity:1;stroke-miterlimit:4;" d="M 328.218657 -43.89134 C 323.094146 -43.89134 318.719564 -40.01671 318.219612 -35.017188 C 308.095578 45.100162 292.972023 91.220757 278.348419 111.843788 C 271.099111 122.092809 264.849708 125.717463 259.600209 126.467391 C 254.475699 127.21732 248.60126 125.342499 241.726916 119.593048 C 227.978229 108.344122 212.979661 82.596581 202.980616 53.349374 C 193.106559 24.227155 187.732072 -8.39473 189.85687 -32.89239 C 190.231834 -36.517044 188.606989 -39.891722 185.732263 -42.016519 C 182.73255 -44.141316 178.85792 -44.391292 175.60823 -42.891436 C 172.358541 -41.391579 170.233743 -38.141889 169.983767 -34.642223 C 167.484006 -5.894969 173.358445 28.476749 184.107419 59.848753 C 194.731404 91.220757 209.729972 119.343072 229.103122 135.091568 C 238.727203 142.965816 250.226105 147.965339 262.349947 146.215506 C 274.473789 144.590661 285.472739 136.466437 294.721855 123.34269 C 313.220089 97.095196 327.843692 49.09978 337.967726 -32.517426 C 338.34269 -35.392152 337.592762 -38.266877 335.717941 -40.391674 C 333.84312 -42.516471 331.093382 -43.89134 328.218657 -43.89134 Z M 328.218657 -43.89134 " transform="matrix(0.031253,0,0,0.031253,0,6.719392)"/>
<path style="fill-rule:nonzero;fill:rgb(0%,0%,0%);fill-opacity:0.313726;stroke-width:3;stroke-linecap:round;stroke-linejoin:round;stroke:rgb(12.941177%,12.941177%,12.941177%);stroke-opacity:1;stroke-miterlimit:4;" d="M 181.232693 -91.636781 C 177.358063 -91.636781 173.358445 -89.886948 169.983767 -86.637258 L 190.981762 -86.637258 C 189.231929 -88.762055 187.107132 -90.3869 184.482383 -91.136828 C 183.35749 -91.386804 182.357586 -91.511793 181.232693 -91.636781 Z M 181.232693 -91.636781 " transform="matrix(0.031253,0,0,0.031253,0,6.719392)"/>
<path style="fill-rule:nonzero;fill:rgb(0%,0%,0%);fill-opacity:0.313726;stroke-width:3;stroke-linecap:round;stroke-linejoin:round;stroke:rgb(12.941177%,12.941177%,12.941177%);stroke-opacity:1;stroke-miterlimit:4;" d="M 326.593812 -93.261625 C 325.593907 -93.261625 324.469015 -93.136637 323.46911 -92.761673 C 320.219421 -91.886757 317.594671 -89.636972 315.844838 -86.637258 L 339.467582 -86.637258 C 335.842929 -90.886852 331.21837 -93.386613 326.593812 -93.261625 Z M 326.593812 -93.261625 " transform="matrix(0.031253,0,0,0.031253,0,6.719392)"/>
<path style=" stroke:none;fill-rule:nonzero;fill:rgb(12.941177%,12.941177%,12.941177%);fill-opacity:1;" d="M 1.652344 2.972656 C 1.261719 2.972656 0.945312 3.289062 0.945312 3.679688 L 0.945312 13.605469 C 0.945312 13.996094 1.261719 14.3125 1.652344 14.3125 L 14.222656 14.3125 C 14.613281 14.3125 14.929688 13.996094 14.929688 13.605469 L 14.929688 3.679688 C 14.929688 3.289062 14.613281 2.972656 14.222656 2.972656 Z M 1.652344 3.066406 L 14.222656 3.066406 C 14.5625 3.066406 14.835938 3.339844 14.835938 3.679688 L 14.835938 13.605469 C 14.835938 13.945312 14.5625 14.21875 14.222656 14.21875 L 1.652344 14.21875 C 1.3125 14.21875 1.039062 13.945312 1.039062 13.605469 L 1.039062 3.679688 C 1.039062 3.339844 1.3125 3.066406 1.652344 3.066406 Z M 1.652344 3.066406 "/>
</g>
</svg>
